X:275
T:Paddy Fahy's
T:Paddy Fahey's
R:jig
C:Paddy Fahy
D:Fisherstreet
Z:id:hn-jig-275
M:6/8
K:Dmix
DFA dcA|AGE AGE|DFA dcA|AGE D2E|
~D3 DEG|AdB c2A|dfd AGE|AGE D3:|
|:DFA fed|dcA dcA|dAF DdB|~c3 cAG|
DEF EFG|AdB cAG|dfd AGE|AGE D3:|
P:variations
|:DFA dcA|AGE AGE|DFA dcA|AGE C3|
A,DD EFG|AdB c2A|dfd AGE|AGE D3:|
|:DFA fed|dcA AGE|AGE DdB|cBc GEC|
A,DD EFG|AdB c2A|dfd AGE|AGE D3:|

